resources/icons/color/realtimedashboard.svg

<svg width="64" height="64" viewBox="0 0 64 64" fill="none" xmlns="http://www.w3.org/2000/svg">
<path d="M6 13C6 9.13401 9.13401 6 13 6H51C54.866 6 58 9.13401 58 13V51C58 54.866 54.866 58 51 58H13C9.13401 58 6 54.866 6 51V13Z" fill="url(#paint0_linear_41743_63162)"/>
<path d="M6 13C6 9.13401 9.13401 6 13 6H51C54.866 6 58 9.13401 58 13V51C58 54.866 54.866 58 51 58H13C9.13401 58 6 54.866 6 51V13Z" fill="url(#paint1_radial_41743_63162)" fill-opacity="0.2"/>
<path fill-rule="evenodd" clip-rule="evenodd" d="M51 7H13C9.68629 7 7 9.68629 7 13V51C7 54.3137 9.68629 57 13 57H51C54.3137 57 57 54.3137 57 51V13C57 9.68629 54.3137 7 51 7ZM13 6C9.13401 6 6 9.13401 6 13V51C6 54.866 9.13401 58 13 58H51C54.866 58 58 54.866 58 51V13C58 9.13401 54.866 6 51 6H13Z" fill="url(#paint2_linear_41743_63162)"/>
<circle cx="32" cy="32" r="13.5" fill="url(#paint3_linear_41743_63162)" stroke="url(#paint4_linear_41743_63162)"/>
<path fill-rule="evenodd" clip-rule="evenodd" d="M31.646 23.1875C27.0042 23.1875 23.2412 26.9505 23.2412 31.5923C23.2412 32.9606 23.5676 34.2505 24.1461 35.3904C24.2756 35.6454 24.4177 35.893 24.5716 36.1323C24.7957 36.4807 24.6949 36.9448 24.3465 37.1689C23.9982 37.3929 23.5341 37.2922 23.31 36.9438C23.1286 36.6618 22.9612 36.3699 22.8085 36.0692C22.1257 34.7238 21.7412 33.2019 21.7412 31.5923C21.7412 26.122 26.1757 21.6875 31.646 21.6875C32.8643 21.6875 34.0328 21.9078 35.1128 22.3114C35.5008 22.4564 35.6978 22.8884 35.5528 23.2764C35.4078 23.6645 34.9757 23.8615 34.5877 23.7165C33.6731 23.3747 32.6823 23.1875 31.646 23.1875Z" fill="#F5BCD8"/>
<path d="M33.5797 33.8802C35.1297 31.4202 36.6997 28.9402 38.2197 26.4902C38.4297 26.1602 38.6397 25.8302 38.8497 25.5002C39.4997 24.5202 38.0197 23.4402 37.2597 24.3202C37.1897 24.3802 37.1197 24.4402 37.0497 24.5002C36.8897 24.6402 36.7297 24.7702 36.5697 24.9102C36.2297 25.2002 35.8897 25.4902 35.5397 25.7902C34.8297 26.3902 34.1197 27.0002 33.4097 27.6002C32.4997 28.3702 31.5897 29.1502 30.6797 29.9202C30.4797 30.0902 30.2897 30.2502 30.0897 30.4202C26.9397 32.8402 31.1897 37.0602 33.5697 33.8902L33.5797 33.8802Z" fill="#F5BCD8"/>
<path fill-rule="evenodd" clip-rule="evenodd" d="M48.7905 57.24C48.5105 57.52 48.1305 57.68 47.7305 57.68C47.3305 57.68 46.9505 57.52 46.6705 57.24C46.3905 56.96 46.2305 56.58 46.2305 56.18C46.2305 55.78 46.3905 55.4 46.6705 55.12L49.5005 52.29C49.6505 52.14 49.8305 52.02 50.0305 51.95L47.6405 49.56C47.2105 49.13 47.0805 48.49 47.3205 47.92C47.5505 47.36 48.1005 47 48.7005 47H59.4905C60.3205 47 60.9905 47.67 60.9905 48.5V59.29C60.9905 59.71 60.8205 60.1 60.5205 60.38C60.2405 60.64 59.8705 60.79 59.4905 60.79C59.0905 60.79 58.7205 60.63 58.4305 60.35L56.2005 58.12C56.1305 58.31 56.0105 58.5 55.8605 58.65L53.0305 61.48C52.7505 61.76 52.3705 61.92 51.9705 61.92C51.5705 61.92 51.1905 61.76 50.9105 61.48C50.3305 60.9 50.3305 59.97 50.8805 59.39L48.7905 61.48C48.5105 61.76 48.1305 61.92 47.7305 61.92C47.3305 61.92 46.9505 61.76 46.6705 61.48C46.0905 60.9 46.0905 59.94 46.6705 59.36" fill="#F5F5F5"/>
<path fill-rule="evenodd" clip-rule="evenodd" d="M60.0005 48.5C60.0005 48.22 59.7805 48 59.5005 48H48.7105C48.2605 48 48.0405 48.54 48.3605 48.85L59.1505 59.64C59.4605 59.95 60.0005 59.73 60.0005 59.29V48.5ZM50.9205 53.71C51.1205 53.51 51.1205 53.2 50.9205 53C50.7205 52.8 50.4105 52.8 50.2105 53L47.3805 55.83C47.1805 56.03 47.1805 56.34 47.3805 56.54C47.5805 56.74 47.8905 56.74 48.0905 56.54L50.9205 53.71ZM53.0405 55.12C53.2405 55.32 53.2405 55.63 53.0405 55.83L48.0905 60.78C47.8905 60.98 47.5805 60.98 47.3805 60.78C47.1805 60.58 47.1805 60.27 47.3805 60.07L52.3305 55.12C52.5305 54.92 52.8405 54.92 53.0405 55.12ZM55.1605 57.95C55.3605 57.75 55.3605 57.44 55.1605 57.24C54.9605 57.04 54.6505 57.04 54.4505 57.24L51.6205 60.07C51.4205 60.27 51.4205 60.58 51.6205 60.78C51.8205 60.98 52.1305 60.98 52.3305 60.78L55.1605 57.95Z" fill="url(#paint5_linear_41743_63162)"/>
<defs>
<linearGradient id="paint0_linear_41743_63162" x1="20.4444" y1="6" x2="27.0222" y2="58.6222" gradientUnits="userSpaceOnUse">
<stop stop-color="white"/>
<stop offset="1" stop-color="#EBEBEB"/>
</linearGradient>
<radialGradient id="paint1_radial_41743_63162" cx="0" cy="0" r="1" gradientUnits="userSpaceOnUse" gradientTransform="translate(22.6111 19.5417) rotate(56.3099) scale(49.4762 42.8159)">
<stop offset="0.177083" stop-color="white"/>
<stop offset="1" stop-color="#B8B8B8"/>
</radialGradient>
<linearGradient id="paint2_linear_41743_63162" x1="22.7917" y1="6" x2="29.7931" y2="58.5109" gradientUnits="userSpaceOnUse">
<stop stop-color="#BBBBBB"/>
<stop offset="1" stop-color="#888888"/>
</linearGradient>
<linearGradient id="paint3_linear_41743_63162" x1="18" y1="18" x2="46" y2="46" gradientUnits="userSpaceOnUse">
<stop stop-color="#E03F8F"/>
<stop offset="1" stop-color="#BD1E7B"/>
</linearGradient>
<linearGradient id="paint4_linear_41743_63162" x1="18" y1="18" x2="46" y2="46" gradientUnits="userSpaceOnUse">
<stop stop-color="#E03F8F"/>
<stop offset="1" stop-color="#BD1E7B"/>
</linearGradient>
<linearGradient id="paint5_linear_41743_63162" x1="47.2305" y1="48" x2="60.1595" y2="60.769" gradientUnits="userSpaceOnUse">
<stop stop-color="#E03F8F"/>
<stop offset="1" stop-color="#BD1E7B"/>
</linearGradient>
</defs>
</svg>

<svg xmlns="http://www.w3.org/2000/svg" width="64" height="64" fill="currentColor"><path fill="url(#a)" d="M6 13a7 7 0 0 1 7-7h38a7 7 0 0 1 7 7v38a7 7 0 0 1-7 7H13a7 7 0 0 1-7-7V13Z"/><path fill="url(#b)" fill-opacity=".2" d="M6 13a7 7 0 0 1 7-7h38a7 7 0 0 1 7 7v38a7 7 0 0 1-7 7H13a7 7 0 0 1-7-7V13Z"/><path fill="url(#c)" fill-rule="evenodd" d="M51 7H13a6 6 0 0 0-6 6v38a6 6 0 0 0 6 6h38a6 6 0 0 0 6-6V13a6 6 0 0 0-6-6ZM13 6a7 7 0 0 0-7 7v38a7 7 0 0 0 7 7h38a7 7 0 0 0 7-7V13a7 7 0 0 0-7-7H13Z" clip-rule="evenodd"/><path fill="url(#d)" stroke="currentColor" d="M32 45.5c7.456 0 13.5-6.044 13.5-13.5S39.456 18.5 32 18.5 18.5 24.544 18.5 32 24.544 45.5 32 45.5Z"/><path fill="#F5BCD8" fill-rule="evenodd" d="M31.646 23.188a8.405 8.405 0 0 0-7.074 12.944.75.75 0 0 1-1.262.812 9.866 9.866 0 0 1-1.569-5.352c0-5.47 4.435-9.905 9.905-9.905 1.218 0 2.387.22 3.467.624a.75.75 0 1 1-.525 1.405 8.385 8.385 0 0 0-2.942-.529Z" clip-rule="evenodd"/><path fill="#F5BCD8" d="M33.58 33.88c1.55-2.46 3.12-4.94 4.64-7.39l.63-.99c.65-.98-.83-2.06-1.59-1.18l-.21.18c-.16.14-.32.27-.48.41l-1.03.88c-.71.6-1.42 1.21-2.13 1.81-.91.77-1.82 1.55-2.73 2.32l-.59.5c-3.15 2.42 1.1 6.64 3.48 3.47l.01-.01Z"/><path fill="#F5F5F5" fill-rule="evenodd" d="M48.79 57.24a1.499 1.499 0 1 1-2.12-2.12l2.83-2.83c.15-.15.33-.27.53-.34l-2.39-2.39c-.43-.43-.56-1.07-.32-1.64.23-.56.78-.92 1.38-.92h10.79c.83 0 1.5.67 1.5 1.5v10.79c0 .42-.17.81-.47 1.09-.28.26-.65.41-1.03.41-.4 0-.77-.16-1.06-.44l-2.23-2.23c-.07.19-.19.38-.34.53l-2.83 2.83a1.499 1.499 0 0 1-2.15-2.09l-2.09 2.09a1.499 1.499 0 0 1-2.12 0c-.58-.58-.58-1.54 0-2.12" clip-rule="evenodd"/><path fill="url(#e)" fill-rule="evenodd" d="M60 48.5c0-.28-.22-.5-.5-.5H48.71c-.45 0-.67.54-.35.85l10.79 10.79a.5.5 0 0 0 .85-.35V48.5Zm-9.08 5.21c.2-.2.2-.51 0-.71-.2-.2-.51-.2-.71 0l-2.83 2.83c-.2.2-.2.51 0 .71.2.2.51.2.71 0l2.83-2.83Zm2.12 1.41c.2.2.2.51 0 .71l-4.95 4.95c-.2.2-.51.2-.71 0-.2-.2-.2-.51 0-.71l4.95-4.95c.2-.2.51-.2.71 0Zm2.12 2.83c.2-.2.2-.51 0-.71-.2-.2-.51-.2-.71 0l-2.83 2.83c-.2.2-.2.51 0 .71.2.2.51.2.71 0l2.83-2.83Z" clip-rule="evenodd"/><defs><linearGradient id="a" x1="20.444" x2="27.022" y1="6" y2="58.622" gradientUnits="userSpaceOnUse"><stop stop-color="#fff"/><stop offset="1" stop-color="#EBEBEB"/></linearGradient><linearGradient id="c" x1="22.792" x2="29.793" y1="6" y2="58.511" gradientUnits="userSpaceOnUse"><stop stop-color="#BBB"/><stop offset="1" stop-color="#888"/></linearGradient><linearGradient id="d" x1="18" x2="46" y1="18" y2="46" gradientUnits="userSpaceOnUse"><stop stop-color="#E03F8F"/><stop offset="1" stop-color="#BD1E7B"/></linearGradient><linearGradient id="e" x1="47.23" x2="60.16" y1="48" y2="60.769" gradientUnits="userSpaceOnUse"><stop stop-color="#E03F8F"/><stop offset="1" stop-color="#BD1E7B"/></linearGradient><radialGradient id="b" cx="0" cy="0" r="1" gradientTransform="rotate(56.31 -6.951 30.895) scale(49.4762 42.8159)" gradientUnits="userSpaceOnUse"><stop offset=".177" stop-color="#fff"/><stop offset="1" stop-color="#B8B8B8"/></radialGradient></defs></svg>
